!!!OTL: Kriegsfreud und Kriegsleid. / (Soldatenlied. 1622.)
!!!ARE: Europa, Mitteleuropa, Deutschland
!!!SCT: A0424
!!!TXL: @@DE
!!!YEM: Copyright 1995, estate of Helmut Schaffrath.
**kern	**text
*M4/4	*
*met(c)	*
*k[b-]	*
*g:dor	*
!LO:TX:a:t=dor. tr.	!
{4g	Es
=1	=1
4g	get
4a	wol
4b-	ʒu
4cc	der
=2	=2
4.dd	Sommer-
8dd	.
4a}	-ʒeit,
{4dd	der
=3	=3
4cc	Win-
4b-	-ter
4a	fehrt
4g	da-
=4	=4
2a	-hin,}
4r}	.
{4g	Mancher
=5	=5
4g	.
4a	Sol-
4b-	-dat
4cc	ʒu
=6	=6
4.dd	Fel-
8dd	-de
4a}	leit,
{4dd	wie
=7	=7
4cc	ich
4b-	be-
4a	-rich-
4g	-tet
=8	=8
2a	bin,}
4r}	.
{4dd	Ʒu
=9	=9
4ee	Fuß
4dd	und
4dd	auch
4cc#	ʒu
=10	=10
2.dd}	Pferd,
{4dd	wie
=11	=11
4ee	man
4dd	nur
4dd	ihr
4cc#	be-
=12	=12
2dd	-gert,
4r}	.
{4b-	gantʒ
=13	=13
2ff	mun-
4cc	-ter,
4cc	be-
=14	=14
2dd	-ſun-
4b-}	-der,
{4b-	die
=15	=15
4cc	be-
4dd	-ſte
4ee-	Reu-
4cc	-te-
=16	=16
2b-	-rey,
4r}	.
{4dd	ein
=17	=17
4cc	gan-
4b-	-tʒe
4a	wer-
4g	-the
=18	=18
4.f#	Rit-
8g	-ter-
4a}	-ſchafft,
{4b-/	Fuß-
=19	=19
4cc	-volck
4dd	iſt
4.a	auch
8g	dar-
=20	=20
2g	-bey.
4r}	.
==	==
!!!GTL: Landsknecht- und Reiterlieder
!!!AGN: Romanze, Ballade, Lied, Kriegslied
!! Werlin Hs. 1646 S. 3302.
!!!ONB: ESAC (Essen Associative Code) Database: ALTDEU
!!!AMT: simple quadruple
!!!AIN: vox
!!!EED: Helmut Schaffrath
!!!EEV: 1.0
!!!RDF**kern: l = terminal long
!!!AMD: Dorian
!!!URL-scan: https://rosdok.uni-rostock.de/mcrviewer/recordIdentifier/rosdok_ppn738218359/iview2/phys_0601.iview2?x=-1294.6859637568468&y=412.33715686388314&scale=0.3170017948926&rotation=0&layout=singlePageLayout&logicalDiv=log_0016
!!!ENC: Anna Maria Matuszewska
!!!EEV: 2024/18/03
*-	*-
